24x24/places/folder-cyan-image-people.svg

<svg xmlns="http://www.w3.org/2000/svg" width="24" height="24" version="1"><rect style="opacity:.2" width="20" height="12" x="2" y="9.5" rx="1" ry="1"/><path style="fill:#0badff" d="M2 17c0 .554.446 1 1 1h18c.554 0 1-.446 1-1V6c0-.554-.446-1-1-1h-9c-1.5 0-2-2-3.5-2H3c-.554 0-1 .446-1 1"/><rect style="opacity:.2" width="20" height="12" x="2" y="8.5" rx="1" ry="1"/><rect style="fill:#f4f4f7" width="16" height="8" x="4" y="7" rx="1" ry="1"/><rect style="fill:#00bcd4" width="20" height="12" x="2" y="9" rx="1" ry="1"/><path style="opacity:.1;fill:#f4f4f7" d="M3 3c-.554 0-1 .446-1 1v.5c0-.554.446-1 1-1h5.5c1.5 0 2 2 3.5 2h9c.554 0 1 .446 1 1V6c0-.554-.446-1-1-1h-9c-1.5 0-2-2-3.5-2z"/><path style="fill:#00caff" d="M12 11a2 2 0 0 0-2 2 2 2 0 0 0 2 2 2 2 0 0 0 2-2 2 2 0 0 0-2-2zm-1.693 4.062c-1.264.216-2.18.652-2.295 1.174-.002.006 0 .013 0 .018-.004.02-.005.038-.006.058 0 .01-.006.016-.006.026v1.394c0 .149.088.268.2.268H15.8c.111 0 .199-.119.199-.268v-1.404c-.001-.032-.012-.06-.02-.092-.115-.521-1.029-.958-2.289-1.174A2 2 0 0 1 12 16a2 2 0 0 1-1.693-.938z"/></svg>

<svg xmlns="http://www.w3.org/2000/svg" width="24" height="24" version="1">
 <rect style="opacity:0.2" width="20" height="12" x="2" y="9.5" rx="1" ry="1"/>
 <path style="fill:#0badff" d="M 2,17 C 2,17.554 2.446,18 3,18 H 21 C 21.554,18 22,17.554 22,17 V 6 C 22,5.446 21.554,5 21,5 H 12 C 10.5,5 10,3 8.5,3 H 3 C 2.446,3 2,3.446 2,4"/>
 <rect style="opacity:0.2" width="20" height="12" x="2" y="8.5" rx="1" ry="1"/>
 <rect style="fill:#f4f4f7" width="16" height="8" x="4" y="7" rx="1" ry="1"/>
 <rect style="fill:#00bcd4" width="20" height="12" x="2" y="9" rx="1" ry="1"/>
 <path style="opacity:0.1;fill:#f4f4f7" d="M 3,3 C 2.446,3 2,3.446 2,4 V 4.5 C 2,3.946 2.446,3.5 3,3.5 H 8.5 C 10,3.5 10.5,5.5 12,5.5 H 21 C 21.554,5.5 22,5.946 22,6.5 V 6 C 22,5.446 21.554,5 21,5 H 12 C 10.5,5 10,3 8.5,3 Z"/>
 <path style="fill:#00caff" d="M 12,11 A 2,2 0 0 0 9.9999,13 2,2 0 0 0 12,15 2,2 0 0 0 14,13 2,2 0 0 0 12,11 Z M 10.307,15.062 C 9.0431,15.278 8.1267,15.714 8.0116,16.236 8.0099,16.242 8.0128,16.249 8.0116,16.254 8.0076,16.274 8.0075,16.292 8.0058,16.312 8.0052,16.322 7.9999,16.328 7.9999,16.338 7.9998,16.341 7.9999,16.341 7.9999,16.344 V 17.732 C 7.9999,17.881 8.0883,18 8.1991,18 H 15.801 C 15.912,18 16,17.881 16,17.732 V 16.328 C 15.999,16.296 15.988,16.268 15.98,16.236 15.865,15.715 14.951,15.278 13.691,15.062 A 2,2 0 0 1 12,16 2,2 0 0 1 10.307,15.062 Z"/>
</svg>
